src/assets/icons/svg/mobile.svg

<?xml version="1.0" encoding="UTF-8"?>
<svg width="20px" height="31px" viewBox="0 0 20 31" version="1.1" xmlns="http://www.w3.org/2000/svg" xmlns:xlink="http://www.w3.org/1999/xlink">
    <!-- Generator: Sketch 61 (89581) - https://sketch.com -->
    <title>Icons/Mobile/48</title>
    <desc>Created with Sketch.</desc>
    <g id="MVP" stroke="none" stroke-width="1" fill="none" fill-rule="evenodd">
        <g id="Kirjautuneen-käyttäjän-näkymä-Auki" transform="translate(-237.000000, -266.000000)">
            <g id="Icons/Mobile/48" transform="translate(223.000000, 258.000000)">
                <rect id="Bounding-box" x="0" y="0" width="48" height="48"></rect>
                <path d="M31.5675,8 C32.78,8 33.76125,8.9825 33.76125,10.19375 L33.76125,10.19375 L33.76125,36.5475 C33.76125,37.75875 32.78,38.74125 31.5675,38.74125 L31.5675,38.74125 L16.19375,38.74125 C14.9825,38.74125 14,37.75875 14,36.5475 L14,36.5475 L14,10.19375 C14,8.9825 14.9825,8 16.19375,8 L16.19375,8 Z M30.4675,11.29375 L17.29375,11.29375 L17.29375,35.4475 L30.4675,35.4475 L30.4675,11.29375 Z M23.88075,28.860125 C25.0945,28.860125 26.07825,29.842625 26.07825,31.055125 C26.07825,32.268875 25.0945,33.251375 23.88075,33.251375 C22.66825,33.251375 21.6845,32.268875 21.6845,31.055125 C21.6845,29.842625 22.66825,28.860125 23.88075,28.860125 Z" id="Color" fill="#000000" fill-rule="evenodd"></path>
            </g>
        </g>
    </g>
</svg>

<?xml version="1.0" encoding="UTF-8"?>
<svg version="1.1" viewBox="0 0 20 31" xmlns="http://www.w3.org/2000/svg"><g fill="none" fill-rule="evenodd"><g transform="translate(-237 -266)"><g transform="translate(223 258)"><rect width="48" height="48"/><path d="m31.568 8c1.2125 0 2.1938 0.9825 2.1938 2.1938v26.354c0 1.2112-0.98125 2.1938-2.1938 2.1938h-15.374c-1.2112 0-2.1938-0.9825-2.1938-2.1938v-26.354c0-1.2112 0.9825-2.1938 2.1938-2.1938zm-1.1 3.2938h-13.174v24.154h13.174v-24.154zm-6.5868 17.566c1.2138 0 2.1975 0.9825 2.1975 2.195 0 1.2138-0.98375 2.1962-2.1975 2.1962-1.2125 0-2.1962-0.9825-2.1962-2.1962 0-1.2125 0.98375-2.195 2.1962-2.195z" fill="#000" fill-rule="evenodd"/></g></g></g></svg>
